X:1
T:Fuga
T:Fuga
T:sopra il Magnificat
T:J. S. Bach (1685-1750) 
T:pro Organo pleno con Pedale.
C:J. S. Bach(1685-1750)
%%score { ( 1 4 6 7 ) | ( 2 5 ) | 3 }
L:1/8
Q:1/4=92
M:4/4
K:F
V:1 treble nm="Pipe Organ" snm="Org."
V:4 treble 
V:6 treble 
V:7 treble 
V:2 bass 
V:5 bass 
V:3 bass-8 
V:1
"^Andante" z8 | z CDE FGAF | D2 G2 C2 F2- | F2 ED E4- | E2 A,2 D4- | D4 C4- | C2 B,A, B,2 CB, | %7
 A,4 D4- | D2 ^C=B, C2 DE | A4 c4 | A4 A4 | B4 A4 | G8 | F8 | E6 E2 | FEDF EDCE | D8 | C4 F4- | %18
 F4 E4- | E4 D4- | D4 ^C4 | D2 z2 z4 | D8- | DCDE FGAF | B8- | BGAB cdec | fedc =BA^GB | %27
 E2 ^F^G A4- | A2 =BA ^G2 B2 | e4 =g4 | e4 e4 | f4 e4 | d8 | c8- | [Ac]4 [G_B]4- | [GB]4 [F-A]4 | %36
 d4 e4 | f8 | e8 | dc'ba gfeg | [A^c]4 [Ad]4- | d4 ^c4 | [Ad]4 z4 | z8 | z BAG FEDF | %45
 =B,2 G2 ^C2 G2 | ^FDEF G4- | G4 ^F4 | G6 =F2- | F2 E2 D2 G2 | E4 A4- | A4 ^G2 =B2- | %52
 BE^F^G A=BcA | d8 | c4 =B4 | c4 [EG]4 | A6 G2 | FBAG FEDF | EAGF EFGE | FGAB cd_ec | d4 c4 | B8- | %62
 BdcB AGFA | DE F4 E2 | F6 E2- | EA=B^c defd | g8- | g4 f4- | f4 e4- | e4 d4- | d4 ^c4 | %71
 d2 =c2 B4 | A4 d4- | d4 ^c4 | [Ad]4 [=ce]4 | f2 d2 c2 a2- | a2 g4 ^f2 | gABc d_efd | _e4 d4- | %79
 dd=e^f gabg | c4- c4- | cBAB c_edc | B2 A2 G4- | G3 A F3 G | E6 A2 | D4- D=fed | ^c=BAc d4- | %87
 d4 ^c4 | d2 f4 e2- | e2 d4 ^c2 | d2 =c4 dc | [GB]8 | A4 d4 | c4 f4- | ffga g2 f2- | %95
 fe^f^g a=bc'a | [=Bd]8- | d2 c=B c2 f2- | f2 ed e2 g2- | gbag fedf | e6 _e2 | d8- | dcde fgaf | %103
 b4 z4 | z def gabg | c'4 b4- | bagf =efge | f8- | f4 [ce]4- | [ce]4 [=Bd]4- | [Bd]4 [Ac]4- | %111
 [Ac]4 [G-=B]4 | [Gc-]4 cdc=B | A=BcA d4- | [=Bd]8 | c4 z4 | z4 z cde | fedf =Bc d2- | d2 c=B c4- | %119
 c8- | c2 B2 A2 d2 | G8- | [db]6 a2- | a2 g4 ^f2 | g8- | g2 fe f2 g2 | a8 | b2 a2 g4- | %128
 gagf e^fge | ^f4 g4 | a4 d4- | d2 c2 B4- | BAGF EFGE | GFED d4- | d4 ^c4 | [^Fd]8 |] %136
V:2
 A,4 C4 | A,4 A,4 | B,4 A,4 | G,8 | F,6 G,2 | A,2 E,2 A,2 G,2 | ^F,2 D,2 G,4- | %7
 G,2 =F,E, F,2 G,F, | E,4 A,4 | D,F,E,D, C,B,,A,,C, | F,,A,,=B,,^C, D,E,F,D, | G,F,E,G, F,E,D,F, | %12
 =B,,D,^C,B,, C,E,A,,C, | D,A,,=B,,^C, D,E,F,D, | A,4- A,G,F,E, | D,2 G,2 C,2 F,2 | %16
 =B,,2 C,D, E,^F,^G,E, | A,=G,=F,E, D,C,_B,,D, | G,,F,E,D, C,B,,A,,C, | A,2 F,4 B,2 | G,2 E,4 A,2 | %21
 F,E,F,G, A,=B,CA, | C,=B,,C,D, E,^F,^G,E, | A,8- | A,G,A,B, CDEC | F6 E2 | D8- | D^G,A,=B, CDEC | %28
 FEDC =B,CDB, | C=B,CD EFGE | z ^G,A,=B, CDEC | A,2 D2 ^G,2 C2- | C2 =B,A, B,2 E,2 | %33
 A,=B,CD E[I:staff -1]=F=GE |[I:staff +1] A,D,E,F, G,A,_B,G, | CC,D,E, F,G,A,F, | [B,D-]8 | %37
 D^CDE F[I:staff -1]GAF | BA[I:staff +1]GF ED=CE | A,4 B,2 G2 | G,B,A,G, F,E,D,F, | %41
 z =B,,^C,D, E,F,G,E, | F,2 _B,2 E,2 A,2 | D,6 =E,2 | A,2 ^C2 D2 A,2 | G,4 A,4- | %46
 A,^F,G,A, _B,[I:staff -1]CDB, |[I:staff +1] C,2 A,,2 D,4 | G,,A,,B,,C, D,E,F,D, | %49
 G,D,E,F, G,A,=B,G, | C=B,A,G, F,E,D,F, | =B,,2 C,D, E,2 D,2 | E,2 D,2 E,2 A,2- | A,2 x2 x4 | %54
 A,C=B,A, =G,F,E,G, | A,4 x4 | F,,G,,A,,B,, C,D,E,C, | B,4 A,4 | G,8 | F,8- | F,2 x2 x4 | G,4 F,4 | %62
 E,2 C,2 F,2 A,,2 | B,,2 G,,2 C,4 | F,,2 z2 z4 | F,4 B,4- | B,E,F,G, A,=B,^CA, | D4- DD,E,F, | %68
 G,A,B,G, CC,D,E, | F,G,A,F, B,A,G,F, | E,D,^C,E, A,,G,F,E, | D,=C,B,,D, G,,2 G,2- | %72
 G,B,A,G, F,E,D,F, | E,D,^C,=B,, A,,G,,F,,A,, | D,,2 z2 z4 | F,E,F,G, A,B,CA, | DCB,D CB,A,C | %77
 B,8- | B,B,A,G, ^F,=E,D,F, | G,8- | G,8 | ^F,4- F,4 | G,,D,,=E,,=F,, G,,A,,B,,G,, | %83
 ^C,A,,=B,,C, D,E,F,D, | ^G,E,^F,G, A,=B,CA, | ^F,D,E,^F, G,4- | G,4 F,2 D,2 | E,2 G,2 A,2 A,,2 | %88
 D,DCB, A,B,CA, | F,B,A,G, F,G,A,F, | D,C,D,E, F,E,D,F, | G,G,,A,,B,, C,D,_E,C, | F,8- | F,6 E,2 | %94
 C4 =B,4- | B,4 A,4- | A,4 ^G,2 E2- | E=FED E2 F2 | CDEF GFEG | ^C4 D4 |[I:staff -1] E6 =F2- | %101
 F4 D4 |[I:staff +1] E2 D2 C2 F2- | F6 =ED | C8- | [A,C]4 [B,D]4- | D4 C2 B,2 | C4 z4 | z DEF x4 | %109
 F,G,A,F, =B,=B,,C,D, | E,F,G,E, A,A,,=B,,C, | D,E,F,D, G,E,F,G, | C,G,A,=B, C4- | C4- CC=B,A, | %114
 ^G,A,=B,G, z E,^F,^G, | A,=B,CA, D4- | D4 C4 | =B,8 | A,4 z4 | G,6 ^F,2 | G,8 | z8 | %122
[K:treble] z G,A,B, CD_EC | z =E^FG ABcA | B8- | BBAG FGAF |[K:bass] z8 | D8 | ^C2 D2 E4 | =C4 z4 | %130
 z _EDC B,A,G,B, | ^F,2 A,2[I:staff -1] D4 | E2[I:staff +1] A,2 B,4 | A,2 z2 z2 B,2 | A,4- A,4- | %135
 [D,A,]8 |] %136
V:3
 z8 | z8 | z8 | z8 | z8 | z8 | z8 | z8 | z8 | z8 | z8 | z8 | z8 | z8 | z8 | z8 | z8 | z8 | z8 | %19
 z8 | z8 | z8 | z8 | z8 | z8 | z8 | z8 | z8 | z8 | z8 | z8 | z8 | z8 | z8 | z8 | z8 | z8 | z8 | %38
 z8 | z8 | z8 | z8 | z8 | z8 | z8 | z8 | z8 | z8 | z8 | z8 | z8 | z8 | z8 | z8 | z8 | z8 | z8 | %57
 z8 | z8 | z8 | z8 | z8 | z8 | z8 | z8 | z8 | z8 | z8 | z8 | z8 | z8 | z8 | z8 | z8 | z8 | z8 | %76
 z8 | z8 | z8 | z8 | z8 | z8 | z8 | z8 | z8 | z8 | z8 | z8 | z8 | z8 | z8 | z8 | z8 | z8 | z8 | %95
 z8 | z8 | A,,8 | C,8 | A,,8 | A,,8 | B,,8 | A,,8 | G,,8- | G,,8 | F,,8- | F,,8- | F,,4 z4 | z8 | %109
 z8 | z8 | z8 | z8 | z8 | z8 | z8 | z8 | z8 | A,,8 | C,8 | G,,8 | G,,8 | G,,8 | G,,8 | G,,8 | %125
 D,,8 | F,,8 | E,,8- | E,,8 | D,,8- | D,,8- | D,,8- | D,,8- | D,,2 E,,2 F,,2 G,,2 | A,,8 | D,,8 |] %136
V:4
 x8 | x8 | x8 | x8 | x8 | x8 | x8 | x8 | x8 | F4 E4- | E2 DE F2 D2- | D2 G2 C2 F2- | F2 ED E4- | %13
 E4 D4- | DDC=B, C4- | C2 =B,4 A,2- | A,C=B,A, ^G,A, =B,2- | B,2 A,4 D2 | B,2 G,4 C2 | x8 | x8 | %21
 x8 | x8 | x8 | x8 | x8 | x8 | x8 | x8 | E2 A2 =G2 =B2 | [Ac]6 [^G=B]2 | cedc =BdcB | %32
 A2 ^G^F GA =B2- | B2 A^G A4- | F4- F4 | E4- E4 | FcBA GFEG | A4 d4- | d4 =c4- | c4 B4 | E4 F4 | %41
 [EA]8 | D6 =C2- | C_EDC B,[I:staff +1]A,G,B, | x8 | x8 | x8 |[I:staff -1] _EDCB, A,B,CA, | %48
 B,4 A,4 | =B,2 C2 B,2 D2- | D2 C=B, C2 F2 | DEDC =B,[I:staff +1]A,^G,=B, | x8 | %53
[I:staff -1] x2 A2 ^G2 =B2 | E4 =G4 | E4 C4 | A,4 A,4 | D8 | C8- | C2 z2 z4 | x2 B4 A2- | %61
 AGFE D[I:staff +1]CB,D | G,4[I:staff -1] z2 C2- | C2 B,A, G,A,B,G, | A,2 D2[I:staff +1] G,2 C2 | %65
 x8 |[I:staff -1] z8 | z[I:staff +1] EF[I:staff -1]G ABcA | B8 | A8 | G8 | F2 ^F2 G=FED | %72
 ^CDEC[I:staff +1] A,2[I:staff -1] F2 | G4- G_BAG | FFE[I:staff +1]D CB,A,C |[I:staff -1] A4 A4 | %76
 B4 A4 | G4 =F4 | G4 A4 | B2 z2 z4 | z =F_ED EDCE |[I:staff +1] A,2[I:staff -1] z2 z4 | %82
 G,2 =F2 =E2 D2 | E4- E2 D2- | D2 C=B, C4- | C2 _B,A,[I:staff +1] B,4 | %86
[I:staff -1] (A,4[I:staff +1] A,)[I:staff -1]=c_BA | GFEF GBAG | F4 A2 G2- | G2 F4 E2 | %90
 F2 G2 C2 F2- | F2 _ED E4- | E_ED[I:staff +1]C B,A,G,B, | A,G,A,B, C4- |[I:staff -1] d8- | d4 c4 | %96
 x8 | B2 A^G A2 c2- | c6 e2 | egfe d4- | d2 =c=B c4- | c2 _BA B4- | B4 A4 | d_edc BAGB | E4 _E4- | %105
 Egf_e defd | B8- | BBAG A4 | G4 GABG | A4- A4 | G4- G4 | F8- | F4 E4 | ^F4- F2 ^GA | x8 | %115
 A4- Ac=BA | ^GA=BG A4- | A4- A3 ^G | A6 =F2- | FAGF EDC_E | D2 G2 ^F2 A2 | GABG ABc^f | %122
 x4 x2 c2- | c2 B2 cd_ec | d4 =e4- | e2 d^c d4 | z A=B^c defd | g2 f2 e4- | e2 d4 =c2- | %129
 c_edc BAGB | ^F4 G4 | A6 G2- | G=FED ^CDEC | D2 z2 z2 E2 | FAGF E^FGE | x8 |] %136
V:5
 x8 | x8 | x8 | x8 | x8 | x8 | x8 | x8 | x8 | x8 | x8 | x8 | x8 | x8 | x8 | x8 | x8 | x8 | x8 | %19
 F,,E,D,C, B,,A,,G,,B,, | E,,D,^C,=B,, A,,G,,F,,A,, | D,,2 D,4 =C,2- | x8 | x8 | x8 | x8 | x8 | %27
 x8 | x8 | x8 | x8 | x8 | x8 | A,8- | x8 | x8 | x8 | A,8 | G,4 A,4 | ^F,4 G,4- | x8 | G,,8 | %42
 D,4 z4 | x8 | F,8- | F,A,G,F, E,D,^C,E, | D,6 B,,2 | x8 | x8 | x8 | x8 | x8 | C,2 =B,,2 C,2 F,2- | %53
 F,=B,,C,D, E,^F,^G,E, | x8 | C,F,E,D, C,_B,,A,,C, | x8 | D,2 C,2 D,2 B,,2- | B,,2 C,D, C,2 B,,2 | %59
 A,,2 G,,2 A,,2 F,,2 | B,,C,D,E, F,G,A,F, | x8 | x8 | x8 | x8 | x8 | x8 | x8 | x8 | x8 | x8 | x8 | %72
 x8 | x8 | x8 | D,4 F,4 | D,4 D,4 | _E,4 D,4 | C,8 | B,,2 A,,2 B,,2 G,,2 | A,,2 B,,2 C,2 A,,2 | %81
 D,2 C,2 B,,2 A,,2 | x8 | x8 | x8 | x8 | x8 | x8 | x8 | x8 | x8 | x8 | x8 | x8 | %94
 D,2 E,F, G,A,=B,G, | C,4 F,4- | F,=B,,C,D, E,^F,^G,E, | A,4- A,C_B,A, | G,8 | A,8 | %100
 z E,^F,^G, A,=B,CA, | F,D,E,F, G,A,B,G, | C2 G,2 A,2 C2 | B,2 A,2 G,4- | G,2 B,A, B,4 | x8 | %106
 B,2 A,2 G,4 | F,4- F,G,A,B, | C4- CC,D,E, | x8 | x8 | x8 | x8 | x8 | x4 C,4- | C,4 F,4- | %116
 F,4 E,4 | D,4 E,4- | E,E,^F,^G, A,=B,CA, | x8 | z A,B,C D[I:staff -1]=E^FD | x8 | %122
[I:staff +1][K:treble] x8 | D4 z4 | z =F=ED ^CDEC | D8 |[K:bass] D8- | z D,E,F, G,A,B,G, | %128
 E,2 F,2 G,4 | A,4 z4 | x8 | z D,=E,^F, G,A,B,G, | ^C,2 D,2 G,4 | F,2 z2 z2 G,2 | F,2 E,D, E,4 | %135
 x8 |] %136
V:6
 x8 | x8 | x8 | x8 | x8 | x8 | x8 | x8 | x8 | x8 | x8 | x8 | x8 | x8 | x8 | x8 | x8 | x8 | x8 | %19
 x8 | x8 | x8 | x8 | x8 | x8 | x8 | x8 | x8 | x8 | x8 | x8 | A2 =B2- =B2 A=G | %32
 FE[I:staff +1]DC D2 ^G,2 | x8 | x8 | x8 | x8 | x8 | x8 | x8 | x8 | x8 | x8 | x8 | x8 | x8 | x8 | %47
 x8 | x8 | x8 | x8 | x8 | x8 | x8 | x8 | x8 | x8 | x8 | x8 | x8 | x8 | x8 | x8 | x8 | x8 | x8 | %66
 x8 | x8 | x8 | x8 | x8 | x8 | x8 | x8 | x8 | x8 | x8 | x8 | x8 | x8 | x8 | x8 | x8 | x8 | x8 | %85
 x8 | x8 | x8 | x8 | x8 | x8 | x8 | x8 | x8 | x8 | x8 | x8 | x8 | x8 | x8 | x8 | x8 | x8 | x8 | %104
 x8 | x8 | x8 | x8 | x8 | x8 | x8 | x8 | x8 | x8 | x8 | x8 | x8 | x8 | x8 | x8 | x8 | x8 | x8 | %123
 x8 | x8 | x8 | x8 | x8 | x8 | x8 | x8 | x8 | x8 | x8 | x8 | x8 |] %136
V:7
 x8 | x8 | x8 | x8 | x8 | x8 | x8 | x8 | x8 | x8 | x8 | x8 | x8 | x8 | x8 | x8 | x8 | x8 | x8 | %19
 x8 | x8 | x8 | x8 | x8 | x8 | x8 | x8 | x8 | x8 | x8 | x8 | x8 | x8 | x8 | x8 | x8 | x8 | x8 | %38
 x8 | x8 | x8 | x8 | x8 | x8 | x8 | x8 | x8 | x8 | x8 | x8 | x8 | x8 | x8 | x8 | x8 | x8 | F4 E4 | %57
 x8 | x8 | x8 | x8 | x8 | x8 | x8 | x8 | x8 | x8 | x8 | x8 | x8 | x8 | x8 | x8 | x8 | x8 | x8 | %76
 x8 | x8 | x8 | x8 | x8 | x8 | x8 | x8 | x8 | x8 | x8 | x8 | A4 =c4 | A4 A4 | B4 A4 | x8 | %92
 F4- F4- | F=EFG A=BcA | x8 | x8 | x8 | x8 | x8 | x8 | x8 | x8 | x8 | x8 | x8 | x8 | x8 | x8 | x8 | %109
 x8 | x8 | x8 | x8 | x8 | x8 | x8 | x8 | x8 | x8 | x8 | x8 | Bcde ^fgaB | G4 z4 | x8 | x8 | x8 | %126
 x8 | x8 | x8 | x8 | x8 | x8 | x8 | x8 | x8 | x8 |] %136

